assets/icons/24px/stroke/message-bubble-with-ellipses-24px.svg

<svg width="24" height="24" viewBox="0 0 24 24" fill="none" xmlns="http://www.w3.org/2000/svg">
<path fill-rule="evenodd" clip-rule="evenodd" d="M6.23352 6.74128C4.80666 7.80445 4 9.22912 4 10.8048C4 12.2984 4.72066 13.8166 5.95102 14.8956C6.41073 15.2987 6.37006 15.8653 6.35235 16.0402C6.32684 16.2921 6.25125 16.5505 6.1766 16.7684C6.03412 17.1842 5.81343 17.6787 5.6163 18.1205C5.60298 18.1503 5.58977 18.1799 5.57669 18.2092C5.45857 18.4742 5.351 18.7178 5.2614 18.935C5.63663 18.8242 6.04521 18.57 6.51179 18.1856C6.70228 18.0286 6.88538 17.8645 7.06804 17.6985C7.09578 17.6733 7.12384 17.6478 7.15213 17.622C7.30271 17.4849 7.45934 17.3423 7.60457 17.2188C7.77171 17.0768 7.97662 16.9138 8.19513 16.7944C8.38614 16.6901 8.79067 16.5043 9.26732 16.6365C9.35869 16.6619 9.44888 16.6871 9.53805 16.7121C10.4182 16.9585 11.1977 17.1767 12 17.1767C14.3046 17.1767 16.3256 16.5185 17.7473 15.4048C19.1501 14.3058 20 12.7458 20 10.8048C20 8.8791 19.1656 7.47797 17.7925 6.52184C16.381 5.53895 14.351 5 12 5C9.70091 5 7.6676 5.67275 6.23352 6.74128ZM5.03855 5.13752C6.86184 3.77898 9.32853 3 12 3C14.6196 3 17.0895 3.59519 18.9354 4.88057C20.8197 6.19273 22 8.19402 22 10.8048C22 13.4004 20.8351 15.5264 18.9807 16.9792C17.1449 18.4173 14.6659 19.1767 12 19.1767C10.9078 19.1767 9.86095 18.882 9.01978 18.6444C8.98629 18.6707 8.9465 18.7031 8.89968 18.7429C8.78296 18.8421 8.65672 18.957 8.50551 19.0946C8.47567 19.1218 8.44486 19.1498 8.41295 19.1788C8.22659 19.3481 8.01362 19.5396 7.78366 19.7291C6.92478 20.4368 5.49534 21.4043 3.80098 20.824C3.7506 20.8067 3.70168 20.7855 3.65469 20.7605C3.05852 20.4427 3.01537 19.8295 3.02009 19.5998C3.02567 19.3275 3.09734 19.054 3.16478 18.8398C3.30457 18.3958 3.54209 17.8612 3.75001 17.3948L3.77185 17.3459C3.9856 16.8665 4.1723 16.4478 4.28457 16.1201C4.28853 16.1086 4.2923 16.0974 4.29588 16.0866C2.87348 14.6867 2 12.7785 2 10.8048C2 8.47919 3.20805 6.50144 5.03855 5.13752ZM4.36252 15.8387C4.36231 15.8408 4.36196 15.8436 4.36145 15.847C4.36177 15.8187 4.36515 15.8128 4.36252 15.8387ZM9.15411 18.5495C9.16979 18.541 9.1682 18.5436 9.15194 18.5507C9.15269 18.5503 9.15341 18.5499 9.15411 18.5495Z" fill="white"/>
<path d="M9 11C9 11.5523 8.55228 12 8 12C7.44772 12 7 11.5523 7 11C7 10.4477 7.44772 10 8 10C8.55228 10 9 10.4477 9 11Z" fill="white"/>
<path d="M13 11C13 11.5523 12.5523 12 12 12C11.4477 12 11 11.5523 11 11C11 10.4477 11.4477 10 12 10C12.5523 10 13 10.4477 13 11Z" fill="white"/>
<path d="M17 11C17 11.5523 16.5523 12 16 12C15.4477 12 15 11.5523 15 11C15 10.4477 15.4477 10 16 10C16.5523 10 17 10.4477 17 11Z" fill="white"/>
</svg>

<svg width="24" height="24" fill="none" xmlns="http://www.w3.org/2000/svg"><path fill-rule="evenodd" clip-rule="evenodd" d="M6.234 6.741C4.807 7.804 4 9.23 4 10.805c0 1.493.72 3.012 1.951 4.09.46.404.42.97.401 1.145-.025.252-.1.51-.175.728-.143.416-.364.91-.56 1.352l-.04.09c-.118.264-.226.508-.316.725.376-.11.784-.365 1.25-.75a15.278 15.278 0 0 0 .641-.563c.15-.137.307-.28.453-.403.167-.142.372-.305.59-.425.191-.104.596-.29 1.072-.157l.271.075c.88.247 1.66.465 2.462.465 2.305 0 4.326-.659 5.747-1.772 1.403-1.1 2.253-2.66 2.253-4.6 0-1.926-.834-3.327-2.207-4.283C16.38 5.539 14.35 5 12 5c-2.3 0-4.332.673-5.766 1.741zM5.039 5.138C6.862 3.779 9.329 3 12 3c2.62 0 5.09.595 6.935 1.88C20.82 6.194 22 8.195 22 10.806c0 2.595-1.165 4.721-3.02 6.174-1.835 1.438-4.314 2.198-6.98 2.198-1.092 0-2.139-.295-2.98-.533a4.018 4.018 0 0 0-.12.099c-.117.1-.243.214-.394.352l-.093.084c-.186.17-.4.36-.63.55-.858.708-2.288 1.675-3.982 1.095a1.01 1.01 0 0 1-.146-.064c-.596-.317-.64-.93-.635-1.16.006-.273.077-.546.145-.76.14-.444.377-.979.585-1.445l.022-.05c.214-.479.4-.897.513-1.225a3.06 3.06 0 0 0 .01-.033C2.874 14.687 2 12.778 2 10.805 2 8.479 3.208 6.5 5.039 5.138zm-.676 10.7l-.002.009c0-.028.004-.034.002-.008zm4.791 2.711z" fill="#fff"/><path d="M9 11a1 1 0 1 1-2 0 1 1 0 0 1 2 0zm4 0a1 1 0 1 1-2 0 1 1 0 0 1 2 0zm4 0a1 1 0 1 1-2 0 1 1 0 0 1 2 0z" fill="#fff"/></svg>
